Newaita-dark/apps/64/google-play-music-desktop-player.svg

<?xml version="1.0" encoding="UTF-8"?>
<svg xmlns="http://www.w3.org/2000/svg" xmlns:xlink="http://www.w3.org/1999/xlink" width="64pt" height="64pt" viewBox="0 0 64 64" version="1.1">
<defs>
<radialGradient id="radial0" gradientUnits="userSpaceOnUse" cx="450.908936" cy="189.579361" fx="450.908936" fy="189.579361" r="21.166656" gradientTransform="matrix(0.000000348341,-0.156265,-0.281277,-0.000000203077,89.046304,127.190659)">
<stop offset="0" style="stop-color:rgb(0%,0%,0%);stop-opacity:0.313725;"/>
<stop offset="0.222222" style="stop-color:rgb(0%,0%,0%);stop-opacity:0.27451;"/>
<stop offset="1" style="stop-color:rgb(0%,0%,0%);stop-opacity:0;"/>
</radialGradient>
<radialGradient id="radial1" gradientUnits="userSpaceOnUse" cx="450.908936" cy="189.579361" fx="450.908936" fy="189.579361" r="21.166656" gradientTransform="matrix(-0.000000348341,0.156265,0.281277,0.000000203077,-25.540237,-15.054964)">
<stop offset="0" style="stop-color:rgb(0%,0%,0%);stop-opacity:0.313725;"/>
<stop offset="0.222222" style="stop-color:rgb(0%,0%,0%);stop-opacity:0.27451;"/>
<stop offset="1" style="stop-color:rgb(0%,0%,0%);stop-opacity:0;"/>
</radialGradient>
<radialGradient id="radial2" gradientUnits="userSpaceOnUse" cx="450.908936" cy="189.579361" fx="450.908936" fy="189.579361" r="21.166656" gradientTransform="matrix(-0.000000348341,-0.156265,0.281277,-0.000000203077,-25.540237,127.190659)">
<stop offset="0" style="stop-color:rgb(0%,0%,0%);stop-opacity:0.313725;"/>
<stop offset="0.222222" style="stop-color:rgb(0%,0%,0%);stop-opacity:0.27451;"/>
<stop offset="1" style="stop-color:rgb(0%,0%,0%);stop-opacity:0;"/>
</radialGradient>
<radialGradient id="radial3" gradientUnits="userSpaceOnUse" cx="450.908936" cy="189.579361" fx="450.908936" fy="189.579361" r="21.166656" gradientTransform="matrix(0.000000348341,0.156265,-0.281277,0.000000203077,89.0463,-15.054965)">
<stop offset="0" style="stop-color:rgb(0%,0%,0%);stop-opacity:0.313725;"/>
<stop offset="0.222222" style="stop-color:rgb(0%,0%,0%);stop-opacity:0.27451;"/>
<stop offset="1" style="stop-color:rgb(0%,0%,0%);stop-opacity:0;"/>
</radialGradient>
<linearGradient id="linear0" gradientUnits="userSpaceOnUse" x1="255.323059" y1="233.5" x2="255.323044" y2="254.666656" gradientTransform="matrix(0.0267201,0,0,0.125012,24.930772,26.877567)">
<stop offset="0" style="stop-color:rgb(0%,0%,0%);stop-opacity:0.27451;"/>
<stop offset="1" style="stop-color:rgb(0%,0%,0%);stop-opacity:0;"/>
</linearGradient>
<linearGradient id="linear1" gradientUnits="userSpaceOnUse" x1="254" y1="-168.666672" x2="254" y2="233.5" >
<stop offset="0" style="stop-color:rgb(100%,54.117647%,39.607843%);stop-opacity:1;"/>
<stop offset="1" style="stop-color:rgb(100%,43.921569%,26.27451%);stop-opacity:1;"/>
</linearGradient>
<linearGradient id="linear2" gradientUnits="userSpaceOnUse" x1="254" y1="-168.666672" x2="254" y2="233.5" gradientTransform="matrix(0.684211,0,0,0.684211,80.210503,10.236849)">
<stop offset="0" style="stop-color:rgb(100%,83.529412%,30.980392%);stop-opacity:1;"/>
<stop offset="1" style="stop-color:rgb(100%,79.215686%,15.686275%);stop-opacity:1;"/>
</linearGradient>
<linearGradient id="linear3" gradientUnits="userSpaceOnUse" x1="254" y1="85.333336" x2="254" y2="-94.583336" gradientTransform="matrix(1,0,0,1,-11.906255,41.904667)">
<stop offset="0" style="stop-color:rgb(87.843137%,87.843137%,87.843137%);stop-opacity:1;"/>
<stop offset="1" style="stop-color:rgb(98.039216%,98.039216%,98.039216%);stop-opacity:1;"/>
</linearGradient>
</defs>
<g id="surface1">
<path style=" stroke:none;fill-rule:nonzero;fill:url(#radial0);" d="M 36.382812 56.066406 L 41.675781 56.066406 L 41.675781 53.421875 L 36.382812 53.421875 Z M 36.382812 56.066406 "/>
<path style=" stroke:none;fill-rule:nonzero;fill:url(#radial1);" d="M 27.121094 56.066406 L 21.832031 56.066406 L 21.832031 58.714844 L 27.121094 58.714844 Z M 27.121094 56.066406 "/>
<path style=" stroke:none;fill-rule:nonzero;fill:url(#radial2);" d="M 27.121094 56.066406 L 21.832031 56.066406 L 21.832031 53.421875 L 27.121094 53.421875 Z M 27.121094 56.066406 "/>
<path style=" stroke:none;fill-rule:nonzero;fill:url(#radial3);" d="M 36.382812 56.066406 L 41.675781 56.066406 L 41.675781 58.714844 L 36.382812 58.714844 Z M 36.382812 56.066406 "/>
<path style=" stroke:none;fill-rule:nonzero;fill:url(#linear0);" d="M 27.121094 55.40625 L 36.382812 55.40625 L 36.382812 58.714844 L 27.121094 58.714844 Z M 27.121094 55.40625 "/>
<path style="fill-rule:nonzero;fill:url(#linear1);stroke-width:3;stroke-linecap:round;stroke-linejoin:miter;stroke:rgb(20%,20%,20%);stroke-opacity:1;stroke-miterlimit:4;" d="M 254.006994 -168.660675 C 365.058889 -168.660675 455.081542 -78.638022 455.081542 32.413873 C 455.081542 143.465768 365.058889 233.488421 254.006994 233.488421 C 142.955098 233.488421 52.901198 143.465768 52.901198 32.413873 C 52.901198 -78.638022 142.955098 -168.660675 254.006994 -168.660675 Z M 254.006994 -168.660675 " transform="matrix(0.125012,0,0,0.125012,0,26.877566)"/>
<path style=" stroke:none;fill-rule:nonzero;fill:rgb(0%,0%,0%);fill-opacity:0.196078;" d="M 31.753906 56.066406 C 17.828125 56.066406 6.613281 44.855469 6.613281 30.929688 C 6.613281 30.847656 6.617188 30.765625 6.617188 30.683594 C 6.746094 44.496094 17.910156 55.574219 31.753906 55.574219 C 45.597656 55.574219 56.757812 44.496094 56.890625 30.683594 C 56.890625 30.765625 56.890625 30.847656 56.890625 30.929688 C 56.890625 44.855469 45.679688 56.066406 31.753906 56.066406 Z M 31.753906 56.066406 "/>
<path style=" stroke:none;fill-rule:nonzero;fill:rgb(100%,100%,100%);fill-opacity:0.392157;" d="M 31.753906 5.792969 C 17.828125 5.792969 6.613281 17.003906 6.613281 30.929688 C 6.613281 31.011719 6.617188 31.09375 6.617188 31.175781 C 6.746094 17.363281 17.910156 6.285156 31.753906 6.285156 C 45.597656 6.285156 56.757812 17.363281 56.890625 31.175781 C 56.890625 31.09375 56.890625 31.011719 56.890625 30.929688 C 56.890625 17.003906 45.679688 5.792969 31.753906 5.792969 Z M 31.753906 5.792969 "/>
<path style=" stroke:none;fill-rule:nonzero;fill:rgb(12.941177%,12.941177%,12.941177%);fill-opacity:1;" d="M 31.753906 5.605469 C 17.726562 5.605469 6.425781 16.902344 6.425781 30.929688 C 6.425781 44.957031 17.726562 56.253906 31.753906 56.253906 C 45.78125 56.253906 57.078125 44.957031 57.078125 30.929688 C 57.078125 16.902344 45.78125 5.605469 31.753906 5.605469 Z M 31.753906 5.980469 C 45.578125 5.980469 56.703125 17.105469 56.703125 30.929688 C 56.703125 44.753906 45.578125 55.878906 31.753906 55.878906 C 17.925781 55.878906 6.800781 44.753906 6.800781 30.929688 C 6.800781 17.105469 17.925781 5.980469 31.753906 5.980469 Z M 31.753906 5.980469 "/>
<path style="fill-rule:nonzero;fill:url(#linear2);stroke-width:3;stroke-linecap:round;stroke-linejoin:miter;stroke:rgb(20%,20%,20%);stroke-opacity:1;stroke-miterlimit:4;" d="M 254.006994 -105.166739 C 329.999737 -105.166739 391.587605 -43.57887 391.587605 32.413873 C 391.587605 108.406616 329.999737 169.994485 254.006994 169.994485 C 178.01425 169.994485 116.426382 108.406616 116.426382 32.413873 C 116.426382 -43.57887 178.01425 -105.166739 254.006994 -105.166739 Z M 254.006994 -105.166739 " transform="matrix(0.125012,0,0,0.125012,0,26.877566)"/>
<path style="fill-rule:nonzero;fill:url(#linear3);stroke-width:3;stroke-linecap:round;stroke-linejoin:miter;stroke:rgb(80.000001%,80.000001%,80.000001%);stroke-opacity:1;stroke-miterlimit:4;" d="M 210.354912 -53.10921 C 198.606034 -53.10921 189.169435 -43.672611 189.169435 -31.95498 L 189.169435 106.031843 C 189.169435 117.749474 198.606034 127.21732 210.354912 127.21732 C 220.916404 127.248567 307.34565 69.285352 355.872266 39.913157 C 363.809008 34.632411 363.809008 29.351666 355.872266 24.039673 C 307.34565 -1.676621 226.228396 -52.671752 210.354912 -53.10921 Z M 210.354912 -53.10921 " transform="matrix(0.125012,0,0,0.125012,0,26.877566)"/>
<path style=" stroke:none;fill-rule:nonzero;fill:rgb(0%,0%,0%);fill-opacity:0.196078;" d="M 45.214844 30.503906 C 45.113281 30.738281 44.886719 30.976562 44.535156 31.210938 C 38.46875 34.878906 27.664062 42.125 26.339844 42.121094 C 24.875 42.121094 23.695312 40.941406 23.695312 39.476562 L 23.695312 40.046875 C 23.695312 41.511719 24.875 42.691406 26.339844 42.691406 C 27.664062 42.695312 38.46875 35.449219 44.535156 31.78125 C 45.171875 31.355469 45.398438 30.929688 45.214844 30.503906 Z M 45.214844 30.503906 "/>
<path style=" stroke:none;fill-rule:nonzero;fill:rgb(100%,100%,100%);fill-opacity:0.701961;" d="M 26.296875 20.238281 C 24.828125 20.238281 23.648438 21.417969 23.648438 22.882812 L 23.648438 23.433594 C 23.648438 21.96875 24.828125 20.789062 26.296875 20.789062 C 28.28125 20.84375 38.421875 27.21875 44.488281 30.433594 C 44.847656 30.671875 45.074219 30.914062 45.171875 31.152344 C 45.347656 30.730469 45.121094 30.304688 44.488281 29.882812 C 38.421875 26.667969 28.28125 20.292969 26.296875 20.238281 Z M 26.296875 20.238281 "/>
<path style=" stroke:none;fill-rule:nonzero;fill:rgb(12.941177%,12.941177%,12.941177%);fill-opacity:1;" d="M 26.296875 20.050781 C 24.730469 20.050781 23.460938 21.316406 23.460938 22.882812 L 23.460938 40.132812 C 23.460938 41.699219 24.730469 42.964844 26.296875 42.96875 C 26.546875 42.96875 26.847656 42.839844 27.289062 42.632812 C 27.730469 42.421875 28.285156 42.125 28.9375 41.753906 C 30.234375 41.015625 31.898438 39.996094 33.714844 38.859375 C 37.339844 36.589844 41.558594 33.859375 44.585938 32.027344 L 44.589844 32.023438 C 45.113281 31.679688 45.417969 31.300781 45.417969 30.875 C 45.417969 30.453125 45.113281 30.074219 44.589844 29.726562 L 44.574219 29.71875 C 41.550781 28.113281 37.5 25.714844 33.953125 23.710938 C 32.183594 22.710938 30.535156 21.808594 29.207031 21.148438 C 28.539062 20.820312 27.953125 20.550781 27.464844 20.363281 C 26.976562 20.171875 26.597656 20.058594 26.300781 20.050781 Z M 26.292969 20.425781 C 26.492188 20.433594 26.859375 20.527344 27.332031 20.710938 C 27.800781 20.894531 28.378906 21.15625 29.039062 21.484375 C 30.359375 22.136719 32 23.039062 33.769531 24.039062 C 37.304688 26.039062 41.347656 28.429688 44.382812 30.042969 C 44.855469 30.355469 45.042969 30.640625 45.042969 30.875 C 45.042969 31.113281 44.855469 31.398438 44.382812 31.710938 C 41.347656 33.550781 37.132812 36.277344 33.515625 38.542969 C 31.703125 39.675781 30.039062 40.695312 28.75 41.429688 C 28.105469 41.796875 27.554688 42.089844 27.128906 42.292969 C 26.703125 42.496094 26.375 42.59375 26.296875 42.59375 C 24.929688 42.59375 23.835938 41.5 23.835938 40.132812 L 23.835938 22.882812 C 23.835938 21.519531 24.929688 20.429688 26.292969 20.425781 Z M 26.292969 20.425781 "/>
</g>
</svg>

<svg xmlns="http://www.w3.org/2000/svg" width="64pt" height="64pt" viewBox="0 0 64 64"><defs><radialGradient id="a" gradientUnits="userSpaceOnUse" cx="450.909" cy="189.579" fx="450.909" fy="189.579" r="21.167" gradientTransform="matrix(0 -.15626 -.28128 0 89.046 127.19)"><stop offset="0" stop-opacity=".314"/><stop offset=".222" stop-opacity=".275"/><stop offset="1" stop-opacity="0"/></radialGradient><radialGradient id="b" gradientUnits="userSpaceOnUse" cx="450.909" cy="189.579" fx="450.909" fy="189.579" r="21.167" gradientTransform="matrix(0 .15626 .28128 0 -25.54 -15.055)"><stop offset="0" stop-opacity=".314"/><stop offset=".222" stop-opacity=".275"/><stop offset="1" stop-opacity="0"/></radialGradient><radialGradient id="c" gradientUnits="userSpaceOnUse" cx="450.909" cy="189.579" fx="450.909" fy="189.579" r="21.167" gradientTransform="matrix(0 -.15626 .28128 0 -25.54 127.19)"><stop offset="0" stop-opacity=".314"/><stop offset=".222" stop-opacity=".275"/><stop offset="1" stop-opacity="0"/></radialGradient><radialGradient id="d" gradientUnits="userSpaceOnUse" cx="450.909" cy="189.579" fx="450.909" fy="189.579" r="21.167" gradientTransform="matrix(0 .15626 -.28128 0 89.046 -15.055)"><stop offset="0" stop-opacity=".314"/><stop offset=".222" stop-opacity=".275"/><stop offset="1" stop-opacity="0"/></radialGradient><linearGradient id="e" gradientUnits="userSpaceOnUse" x1="255.323" y1="233.5" x2="255.323" y2="254.667" gradientTransform="matrix(.02672 0 0 .12501 24.93 26.878)"><stop offset="0" stop-opacity=".275"/><stop offset="1" stop-opacity="0"/></linearGradient><linearGradient id="f" gradientUnits="userSpaceOnUse" x1="254" y1="-168.667" x2="254" y2="233.5"><stop offset="0" stop-color="#ff8a65"/><stop offset="1" stop-color="#ff7043"/></linearGradient><linearGradient id="g" gradientUnits="userSpaceOnUse" x1="254" y1="-168.667" x2="254" y2="233.5" gradientTransform="translate(80.21 10.237) scale(.68421)"><stop offset="0" stop-color="#ffd54f"/><stop offset="1" stop-color="#ffca28"/></linearGradient><linearGradient id="h" gradientUnits="userSpaceOnUse" x1="254" y1="85.333" x2="254" y2="-94.583" gradientTransform="translate(-11.906 41.905)"><stop offset="0" stop-color="#e0e0e0"/><stop offset="1" stop-color="#fafafa"/></linearGradient></defs><path d="M36.383 56.066h5.293v-2.644h-5.293zm0 0" fill="url(#a)"/><path d="M27.121 56.066h-5.289v2.649h5.29zm0 0" fill="url(#b)"/><path d="M27.121 56.066h-5.289v-2.644h5.29zm0 0" fill="url(#c)"/><path d="M36.383 56.066h5.293v2.649h-5.293zm0 0" fill="url(#d)"/><path d="M27.121 55.406h9.262v3.309H27.12zm0 0" fill="url(#e)"/><path d="M254.007-168.66c111.052 0 201.075 90.022 201.075 201.074s-90.023 201.074-201.075 201.074c-111.052 0-201.106-90.022-201.106-201.074s90.054-201.075 201.106-201.075zm0 0" transform="translate(0 26.878) scale(.12501)" fill="url(#f)" stroke-width="3" stroke-linecap="round" stroke="#333"/><path d="M31.754 56.066A25.085 25.085 0 0 1 6.614 30.93l.003-.246c.13 13.812 11.293 24.89 25.137 24.89a25.082 25.082 0 0 0 25.137-24.89v.246a25.082 25.082 0 0 1-25.137 25.136zm0 0" fill-opacity=".196"/><path d="M31.754 5.793A25.085 25.085 0 0 0 6.614 30.93l.003.246c.13-13.813 11.293-24.89 25.137-24.89a25.082 25.082 0 0 1 25.137 24.89v-.246A25.082 25.082 0 0 0 31.754 5.793zm0 0" fill="#fff" fill-opacity=".392"/><path d="M31.754 5.605c-14.027 0-25.328 11.297-25.328 25.325 0 14.027 11.3 25.324 25.328 25.324A25.272 25.272 0 0 0 57.078 30.93 25.272 25.272 0 0 0 31.754 5.605zm0 .375a24.892 24.892 0 0 1 24.95 24.95 24.892 24.892 0 0 1-24.95 24.949A24.892 24.892 0 0 1 6.8 30.929 24.892 24.892 0 0 1 31.754 5.98zm0 0" fill="#212121"/><path d="M254.007-105.167c75.993 0 137.58 61.588 137.58 137.58 0 75.994-61.587 137.581-137.58 137.581-75.993 0-137.58-61.587-137.58-137.58 0-75.993 61.587-137.58 137.58-137.58zm0 0" transform="translate(0 26.878) scale(.12501)" fill="url(#g)" stroke-width="3" stroke-linecap="round" stroke="#333"/><path d="M210.355-53.11c-11.749 0-21.186 9.437-21.186 21.155v137.987c0 11.717 9.437 21.185 21.186 21.185 10.561.032 96.99-57.932 145.517-87.304 7.937-5.28 7.937-10.561 0-15.873-48.526-25.717-129.644-76.712-145.517-77.15zm0 0" transform="translate(0 26.878) scale(.12501)" fill="url(#h)" stroke-width="3" stroke-linecap="round" stroke="#ccc"/><path d="M45.215 30.504c-.102.234-.328.473-.68.707-6.066 3.668-16.87 10.914-18.195 10.91a2.639 2.639 0 0 1-2.645-2.644v.57a2.639 2.639 0 0 0 2.645 2.644c1.324.004 12.129-7.242 18.195-10.91.637-.426.863-.851.68-1.277zm0 0" fill-opacity=".196"/><path d="M26.297 20.238a2.64 2.64 0 0 0-2.649 2.645v.55a2.64 2.64 0 0 1 2.649-2.644c1.984.055 12.125 6.43 18.191 9.645.36.238.586.48.684.718.176-.422-.05-.847-.684-1.27-6.066-3.214-16.207-9.589-18.191-9.644zm0 0" fill="#fff" fill-opacity=".702"/><path d="M26.297 20.05a2.832 2.832 0 0 0-2.836 2.833v17.25a2.838 2.838 0 0 0 2.836 2.836c.25 0 .55-.13.992-.336.441-.211.996-.508 1.648-.88 1.297-.737 2.961-1.757 4.778-2.894 3.625-2.27 7.844-5 10.87-6.832l.005-.004c.523-.343.828-.722.828-1.148 0-.422-.305-.8-.828-1.148l-.016-.008c-3.023-1.606-7.074-4.004-10.62-6.008-1.77-1-3.419-1.902-4.747-2.563a22.226 22.226 0 0 0-1.742-.785c-.488-.191-.867-.304-1.164-.312zm-.004.376c.2.008.566.101 1.039.285.469.184 1.047.445 1.707.773 1.32.653 2.961 1.555 4.73 2.555 3.536 2 7.579 4.39 10.614 6.004.472.312.66.598.66.832 0 .238-.188.523-.66.836-3.035 1.84-7.25 4.566-10.867 6.832-1.813 1.133-3.477 2.152-4.766 2.887a26.46 26.46 0 0 1-1.621.863c-.426.203-.754.3-.832.3a2.45 2.45 0 0 1-2.461-2.46v-17.25a2.451 2.451 0 0 1 2.457-2.457zm0 0" fill="#212121"/></svg>
